X: 21131
T: ADIEU, MY NATIVE LAND ADIEU.
C: Chandler.
Q: "Andantino."
%R: air
B: W. Hamilton "Universal Tune-Book" Vol. 2 Glasgow 1846 p.113 #1
S: http://s3-eu-west-1.amazonaws.com/itma.dl.printmaterial/book_pdfs/hamiltonvol2web.pdf
Z: 2016 John Chambers <jc:trillian.mit.edu>
M: C
L: 1/16
K: D
% - - - - - - - - - - - - - - - - - - - - - - - - -
A4 |\
d6 f2 (f2e2)(g2f2) | (f2e2)(d2c2) d6A2 |\
B4d4 A4d4 | (edcd) e2f2 e6 A2 |\
d6 f2 (f2e2)(g2f2) | (f2e2)(d2c2) d6 A2 |\
(Bcdc) (edcB) (A2d2)(f2a2) |
(g2e2)(B2c2) d6 A2 |\
e2A2^G2B2 A6 f2 | e2A2^G2B2 A6 ^e2 |\
f2(c2d2)^A2 B2F2HG2 G2 |\
g6 f2 e6 d2 | c6 d2 e4 z2A2 |\
g6 f2 e6 d2 | c6 d2 HA6 A2 |
d6 f2 (f2e2)(g2f2) | (f2e2)(d2c2) d6 A2 |\
B4 d4 A4 d4 | (edcd) e3f e6 A2 |\
d6 f2 (f2e2)(g2f2) | (f2e2)(d2c2) d6 A2 |\
(Bcdc) (edcB) A2d2f2a2 | g2e2(B2c2) d4 |]
% - - - - - - - - - - - - - - - - - - - - - - - - -
